src/assets/icon/arrow_back.svg

<svg width="13" height="12" viewBox="0 0 13 12" fill="none" xmlns="http://www.w3.org/2000/svg">
<path d="M2.14397 6.62521L6.45167 10.9329C6.57556 11.0568 6.63674 11.2018 6.63521 11.3679C6.63355 11.534 6.56813 11.6817 6.43896 11.811C6.30966 11.9317 6.16327 11.9942 5.9998 11.9985C5.83633 12.0028 5.68994 11.9403 5.56063 11.811L0.27709 6.5275C0.199034 6.44944 0.144034 6.36715 0.11209 6.28062C0.0800065 6.1941 0.0639648 6.10062 0.0639648 6.00021C0.0639648 5.89979 0.0800065 5.80632 0.11209 5.71979C0.144034 5.63326 0.199034 5.55097 0.27709 5.47292L5.56063 0.189375C5.67605 0.0739584 5.81896 0.0149306 5.98938 0.0122917C6.1598 0.00965284 6.30966 0.0686806 6.43896 0.189375C6.56813 0.318681 6.63271 0.467153 6.63271 0.634792C6.63271 0.80257 6.56813 0.95111 6.43896 1.08042L2.14397 5.37521H11.6248C11.8022 5.37521 11.9506 5.43507 12.0702 5.55479C12.1899 5.67437 12.2498 5.82285 12.2498 6.00021C12.2498 6.17757 12.1899 6.32604 12.0702 6.44562C11.9506 6.56535 11.8022 6.62521 11.6248 6.62521H2.14397Z" fill="black"/>
</svg>

<svg xmlns="http://www.w3.org/2000/svg" width="13" height="12" fill="none" xmlns:v="https://vecta.io/nano"><path d="M2.144 6.625l4.308 4.308c.124.124.185.269.184.435a.62.62 0 0 1-.196.443c-.129.121-.276.183-.439.188s-.31-.058-.439-.187L.277 6.528a.69.69 0 0 1-.165-.247A.8.8 0 0 1 .064 6a.8.8 0 0 1 .048-.28.69.69 0 0 1 .165-.247L5.561.189c.115-.115.258-.174.429-.177s.32.056.45.177c.129.129.194.278.194.445s-.065.316-.194.446L2.144 5.375h9.481c.177 0 .326.06.445.18s.18.268.18.445-.06.326-.18.445-.268.18-.445.18H2.144z" fill="#000"/></svg>
